X:1
T:Title
%%score 1 2
L:1/8
Q:1/4=88
M:6/8
K:Bb
V:1 treble nm="Bright Piano"
V:2 bass nm="Bright Piano"
V:1
 [DF][DF][DF] [DF][_D=E][=DF] | [EG][EG][EG] .[EG]3 | [DF][DF][DF] [FB][FA][FB] | [Fc]6 | %4
w: J.~H.~Fillmore * * * * *||||
 [Fd][Fd][Fd] [Fd][Fc][FB] | [EG][EG][FA] [GB]2 [EG] | [DF][DF][DF] [CA][DB][Ec] | [DB]6 | %8
w: ||||
 [DF][DF][DF] [DF][_D=E][=DF] | [EG][EG][EG] .[EG]3 | [CA][CA][DB] [Ec][DB][CA] | %11
w: |||
 [DB][FA][EG] [DF][B,D][CE] | [DF][DF][DF] [DF][_D=E][=DF] | [EG][EG][EG] .[EG]3 | %14
w: |||
 [CA][CA][DB] [Ec][DB][CA] | [DB]6 |] %16
w: ||
V:2
 [B,,B,][B,,B,][B,,B,] [B,,B,][B,,B,][B,,B,] | [E,B,][E,B,][E,B,] .[E,B,]3 | %2
 [B,,B,][B,,B,][B,,B,] [D,B,][E,C][D,B,] | [F,A,]6 | [B,,B,][B,,B,][B,,B,] [B,,B,][C,A,][D,B,] | %5
 [E,B,][E,B,][E,B,] [E,B,]3 | [F,B,][F,B,][F,B,] [F,C][F,B,][F,A,] | [B,,B,]6 | %8
 [B,,B,][B,,B,][B,,B,] .[B,,B,]3 | [E,B,][E,B,][E,B,] .[E,B,]3 | F,F,F, F,F,F, | %11
 [B,,F,][B,,B,][B,,B,] .[B,,B,]3 | [B,,B,][B,,B,][B,,B,] .[B,,B,]3 | [E,B,][E,B,][E,B,] .[E,B,]3 | %14
 F,F,F, F,F,F, | [B,,F,]6 |] %16

